src/assets/img/Craft_Icon_VideoCard.svg

<svg width="24" height="24" viewBox="0 0 24 24" fill="none" xmlns="http://www.w3.org/2000/svg">
<path d="M22.5001 6H2.25C2.25 4.96613 1.40887 4.125 0.375 4.125C0.167906 4.125 0 4.29291 0 4.5C0 4.70709 0.167906 4.875 0.375 4.875C0.995344 4.875 1.5 5.37966 1.5 6V19.5C1.5 19.7071 1.66791 19.875 1.875 19.875C2.08209 19.875 2.25 19.7071 2.25 19.5V19.125H3.00047C3.62053 19.125 4.125 18.6205 4.125 18.0005V18H22.5001C23.3272 18 24 17.3272 24 16.5001V7.49986C24 6.67284 23.3272 6 22.5001 6ZM23.25 16.5001C23.25 16.9136 22.9136 17.25 22.5001 17.25H3.75C3.54291 17.25 3.375 17.4179 3.375 17.625V18.0005C3.375 18.207 3.207 18.375 3.00047 18.375H2.25V6.75H22.5001C22.9136 6.75 23.25 7.08637 23.25 7.49986V16.5001Z" fill="#393931"/>
<path d="M11.25 9C10.1755 9 9.2317 9.56812 8.70173 10.4194C8.66498 10.4592 8.63709 10.5064 8.62031 10.5578C8.38453 10.9861 8.25 11.4776 8.25 12C8.25 12.5347 8.39123 13.0366 8.63738 13.4718C8.64614 13.4905 8.65645 13.5083 8.66812 13.5253C9.19116 14.4072 10.1525 15 11.25 15C12.9042 15 14.25 13.6542 14.25 12C14.25 11.4653 14.1088 10.9634 13.8626 10.5282C13.8539 10.5095 13.8435 10.4917 13.8319 10.4747C13.3088 9.59278 12.3475 9 11.25 9ZM9 12C9 11.794 9.02836 11.5946 9.08048 11.4049C9.24905 11.5539 9.47672 11.7204 9.78525 11.8985C10.0841 12.0711 10.3357 12.1834 10.545 12.2553C10.4221 12.3519 10.2644 12.4609 10.0665 12.5751C9.67045 12.8037 9.372 12.905 9.20587 12.9384C9.07406 12.6526 9 12.3349 9 12ZM13.5 12C13.5 12.1923 13.4756 12.3791 13.43 12.5574C13.2605 12.4061 13.0296 12.2364 12.7147 12.0546C12.4354 11.8933 12.1974 11.7847 11.9966 11.7125C12.113 11.6242 12.2574 11.5266 12.4335 11.4249C12.8295 11.1964 13.128 11.095 13.2941 11.0616C13.4259 11.3474 13.5 11.6651 13.5 12ZM12.8413 10.4109C12.6275 10.4823 12.3685 10.5965 12.0585 10.7754C11.7655 10.9447 11.5452 11.1034 11.3793 11.2466C11.3583 11.0945 11.3438 10.9086 11.3438 10.6875C11.3438 10.2299 11.4053 9.92058 11.4595 9.76008C11.9969 9.80995 12.4802 10.0492 12.8413 10.4109ZM10.6696 9.82627C10.6245 10.0474 10.5938 10.3291 10.5938 10.6875C10.5938 11.0182 10.6199 11.2838 10.6594 11.4966C10.5178 11.4388 10.3505 11.3588 10.1602 11.249C9.77105 11.0243 9.53536 10.8196 9.42103 10.692C9.72075 10.2741 10.1596 9.96258 10.6696 9.82627ZM9.65855 13.589C9.87248 13.5175 10.1313 13.4036 10.4415 13.2246C10.7345 13.0553 10.9548 12.8966 11.1207 12.7534C11.1417 12.9055 11.1562 13.0914 11.1562 13.3125C11.1562 13.7701 11.0947 14.0794 11.0405 14.2399C10.503 14.19 10.0197 13.9507 9.65855 13.589ZM11.8304 14.1737C11.8755 13.9526 11.9062 13.6709 11.9062 13.3125C11.9062 12.9547 11.8756 12.6734 11.8306 12.4525C11.9743 12.5105 12.145 12.5917 12.3398 12.7041C12.7506 12.9413 12.991 13.1565 13.0974 13.2821C12.7974 13.7131 12.3509 14.0346 11.8304 14.1737Z" fill="#393931"/>
<path d="M20.625 7.875C20.4179 7.875 20.25 8.04291 20.25 8.25C20.25 8.45709 20.4179 8.625 20.625 8.625C21.0385 8.625 21.375 8.96147 21.375 9.375V14.625C21.375 15.0385 21.0385 15.375 20.625 15.375H11.25C9.38902 15.375 7.875 13.861 7.875 12C7.875 10.139 9.38902 8.625 11.25 8.625H19.125C19.3321 8.625 19.5 8.45709 19.5 8.25C19.5 8.04291 19.3321 7.875 19.125 7.875H11.25C8.97548 7.875 7.125 9.72548 7.125 12C7.125 14.2745 8.97548 16.125 11.25 16.125H20.625C21.4521 16.125 22.125 15.4521 22.125 14.625V9.375C22.125 8.54789 21.4521 7.875 20.625 7.875Z" fill="#393931"/>
<path d="M5.25 10.875H4.125C3.71147 10.875 3.375 11.2115 3.375 11.625V12.375C3.375 12.7885 3.71147 13.125 4.125 13.125H5.25C5.66353 13.125 6 12.7885 6 12.375V11.625C6 11.2115 5.66353 10.875 5.25 10.875ZM4.125 12.375V11.625H5.25L5.25005 12.375H4.125Z" fill="#393931"/>
<path d="M5.25 8.25H4.125C3.71147 8.25 3.375 8.58647 3.375 9V9.75C3.375 10.1635 3.71147 10.5 4.125 10.5H5.25C5.66353 10.5 6 10.1635 6 9.75V9C6 8.58647 5.66353 8.25 5.25 8.25ZM4.125 9.75V9H5.25L5.25005 9.75H4.125Z" fill="#393931"/>
<path d="M5.25 13.5H4.125C3.71147 13.5 3.375 13.8365 3.375 14.25V15C3.375 15.4135 3.71147 15.75 4.125 15.75H5.25C5.66353 15.75 6 15.4135 6 15V14.25C6 13.8365 5.66353 13.5 5.25 13.5ZM4.125 15V14.25H5.25L5.25005 15H4.125Z" fill="#393931"/>
<path d="M20.25 9.375H19.125C18.9179 9.375 18.75 9.54291 18.75 9.75C18.75 9.95709 18.9179 10.125 19.125 10.125H20.25C20.4571 10.125 20.625 9.95709 20.625 9.75C20.625 9.54291 20.4571 9.375 20.25 9.375Z" fill="#393931"/>
<path d="M20.25 13.875H19.125C18.9179 13.875 18.75 14.0429 18.75 14.25C18.75 14.4571 18.9179 14.625 19.125 14.625H20.25C20.4571 14.625 20.625 14.4571 20.625 14.25C20.625 14.0429 20.4571 13.875 20.25 13.875Z" fill="#393931"/>
<path d="M20.25 10.5H19.125C18.9179 10.5 18.75 10.6679 18.75 10.875C18.75 11.0821 18.9179 11.25 19.125 11.25H20.25C20.4571 11.25 20.625 11.0821 20.625 10.875C20.625 10.6679 20.4571 10.5 20.25 10.5Z" fill="#393931"/>
<path d="M20.25 11.625H19.125C18.9179 11.625 18.75 11.7929 18.75 12C18.75 12.2071 18.9179 12.375 19.125 12.375H20.25C20.4571 12.375 20.625 12.2071 20.625 12C20.625 11.7929 20.4571 11.625 20.25 11.625Z" fill="#393931"/>
<path d="M20.25 12.75H19.125C18.9179 12.75 18.75 12.9179 18.75 13.125C18.75 13.3321 18.9179 13.5 19.125 13.5H20.25C20.4571 13.5 20.625 13.3321 20.625 13.125C20.625 12.9179 20.4571 12.75 20.25 12.75Z" fill="#393931"/>
</svg>

<?xml version="1.0" encoding="utf-8"?>
<!-- Generator: Adobe Illustrator 27.1.1, SVG Export Plug-In . SVG Version: 6.00 Build 0)  -->
<svg version="1.1" id="Слой_1" xmlns="http://www.w3.org/2000/svg" xmlns:xlink="http://www.w3.org/1999/xlink" x="0px" y="0px"
	 viewBox="0 0 24 24" style="enable-background:new 0 0 24 24;" xml:space="preserve">
<style type="text/css">
	.st0{fill:#393931;}
</style>
<path class="st0" d="M22.5,6H2.2c0-1-0.8-1.9-1.9-1.9C0.2,4.1,0,4.3,0,4.5s0.2,0.4,0.4,0.4C1,4.9,1.5,5.4,1.5,6v13.5
	c0,0.2,0.2,0.4,0.4,0.4s0.4-0.2,0.4-0.4v-0.4H3c0.6,0,1.1-0.5,1.1-1.1v0h18.4c0.8,0,1.5-0.7,1.5-1.5v-9C24,6.7,23.3,6,22.5,6z
	 M23.2,16.5c0,0.4-0.3,0.7-0.7,0.7H3.8c-0.2,0-0.4,0.2-0.4,0.4V18c0,0.2-0.2,0.4-0.4,0.4H2.2V6.7h20.3c0.4,0,0.7,0.3,0.7,0.7V16.5z"
	/>
<path class="st0" d="M11.2,9c-1.1,0-2,0.6-2.5,1.4c0,0-0.1,0.1-0.1,0.1C8.4,11,8.2,11.5,8.2,12c0,0.5,0.1,1,0.4,1.5c0,0,0,0,0,0.1
	c0.5,0.9,1.5,1.5,2.6,1.5c1.7,0,3-1.3,3-3c0-0.5-0.1-1-0.4-1.5c0,0,0,0,0-0.1C13.3,9.6,12.3,9,11.2,9z M9,12c0-0.2,0-0.4,0.1-0.6
	c0.2,0.1,0.4,0.3,0.7,0.5c0.3,0.2,0.6,0.3,0.8,0.4c-0.1,0.1-0.3,0.2-0.5,0.3c-0.4,0.2-0.7,0.3-0.9,0.4C9.1,12.7,9,12.3,9,12z
	 M13.5,12c0,0.2,0,0.4-0.1,0.6c-0.2-0.2-0.4-0.3-0.7-0.5c-0.3-0.2-0.5-0.3-0.7-0.3c0.1-0.1,0.3-0.2,0.4-0.3c0.4-0.2,0.7-0.3,0.9-0.4
	C13.4,11.3,13.5,11.7,13.5,12z M12.8,10.4c-0.2,0.1-0.5,0.2-0.8,0.4c-0.3,0.2-0.5,0.3-0.7,0.5c0-0.2,0-0.3,0-0.6
	c0-0.5,0.1-0.8,0.1-0.9C12,9.8,12.5,10,12.8,10.4z M10.7,9.8c0,0.2-0.1,0.5-0.1,0.9c0,0.3,0,0.6,0.1,0.8c-0.1-0.1-0.3-0.1-0.5-0.2
	c-0.4-0.2-0.6-0.4-0.7-0.6C9.7,10.3,10.2,10,10.7,9.8z M9.7,13.6c0.2-0.1,0.5-0.2,0.8-0.4c0.3-0.2,0.5-0.3,0.7-0.5
	c0,0.2,0,0.3,0,0.6c0,0.5-0.1,0.8-0.1,0.9C10.5,14.2,10,14,9.7,13.6z M11.8,14.2c0-0.2,0.1-0.5,0.1-0.9c0-0.4,0-0.6-0.1-0.9
	c0.1,0.1,0.3,0.1,0.5,0.3c0.4,0.2,0.7,0.5,0.8,0.6C12.8,13.7,12.4,14,11.8,14.2z"/>
<path class="st0" d="M20.6,7.9c-0.2,0-0.4,0.2-0.4,0.4s0.2,0.4,0.4,0.4c0.4,0,0.8,0.3,0.8,0.8v5.2c0,0.4-0.3,0.8-0.8,0.8h-9.4
	c-1.9,0-3.4-1.5-3.4-3.4s1.5-3.4,3.4-3.4h7.9c0.2,0,0.4-0.2,0.4-0.4s-0.2-0.4-0.4-0.4h-7.9C9,7.9,7.1,9.7,7.1,12
	c0,2.3,1.9,4.1,4.1,4.1h9.4c0.8,0,1.5-0.7,1.5-1.5V9.4C22.1,8.5,21.5,7.9,20.6,7.9z"/>
<path class="st0" d="M5.2,10.9H4.1c-0.4,0-0.8,0.3-0.8,0.8v0.8c0,0.4,0.3,0.8,0.8,0.8h1.1c0.4,0,0.8-0.3,0.8-0.8v-0.8
	C6,11.2,5.7,10.9,5.2,10.9z M4.1,12.4v-0.8h1.1l0,0.8H4.1z"/>
<path class="st0" d="M5.2,8.2H4.1C3.7,8.2,3.4,8.6,3.4,9v0.8c0,0.4,0.3,0.8,0.8,0.8h1.1c0.4,0,0.8-0.3,0.8-0.8V9
	C6,8.6,5.7,8.2,5.2,8.2z M4.1,9.7V9h1.1l0,0.8H4.1z"/>
<path class="st0" d="M5.2,13.5H4.1c-0.4,0-0.8,0.3-0.8,0.8V15c0,0.4,0.3,0.8,0.8,0.8h1.1C5.7,15.7,6,15.4,6,15v-0.8
	C6,13.8,5.7,13.5,5.2,13.5z M4.1,15v-0.8h1.1l0,0.8H4.1z"/>
<path class="st0" d="M20.2,9.4h-1.1c-0.2,0-0.4,0.2-0.4,0.4s0.2,0.4,0.4,0.4h1.1c0.2,0,0.4-0.2,0.4-0.4S20.5,9.4,20.2,9.4z"/>
<path class="st0" d="M20.2,13.9h-1.1c-0.2,0-0.4,0.2-0.4,0.4s0.2,0.4,0.4,0.4h1.1c0.2,0,0.4-0.2,0.4-0.4S20.5,13.9,20.2,13.9z"/>
<path class="st0" d="M20.2,10.5h-1.1c-0.2,0-0.4,0.2-0.4,0.4s0.2,0.4,0.4,0.4h1.1c0.2,0,0.4-0.2,0.4-0.4S20.5,10.5,20.2,10.5z"/>
<path class="st0" d="M20.2,11.6h-1.1c-0.2,0-0.4,0.2-0.4,0.4s0.2,0.4,0.4,0.4h1.1c0.2,0,0.4-0.2,0.4-0.4S20.5,11.6,20.2,11.6z"/>
<path class="st0" d="M20.2,12.7h-1.1c-0.2,0-0.4,0.2-0.4,0.4s0.2,0.4,0.4,0.4h1.1c0.2,0,0.4-0.2,0.4-0.4S20.5,12.7,20.2,12.7z"/>
</svg>
